X:1
T:The Brooklyn Strike
M:3/4
L:1/2
K:G
 B/2| B B/2| B A/2| G/2 B-| B B/2| c/2 c| G A/2| B3/2-| B B/2| c c/2|\
 d c/2| c/2 B-| B B/2| B/2 A| c B/2| A3/2-| A B/2| B B/2| B A/2| G/2 B-|\
 B d/2| d ^d/2| e B/2| c3/2-| c d/2| d d/2| c B/2| B/2 A-| A d/4d/4|\
 d B/2| A G/2| G3/2-| G/2 z/2 A/2| A d/2| d e/2| d/2 ^c| ^cc/4-B/4|\
 A B/2| A G/2| F3/2-| F A/2| A d/2| d d/2| e d/2| B d/2| ^c c/2| B A/2|\
 d3/2-| d d/2| d B/2| B A/2| G/2 B-| B d/4d/4| d ^d/2| e B/2| c3/2-|\
 c d/2| d d/2| c B/2|B/4-A/4 c-| c d/2| d B/2| A G/2| G3/2-| G/2 z/2||\
